X: 1
T:Champion of the Seas
M:C|
L:1/8
Q:80
C:P/M William MacDonald
S:Hornpipe
K:HP
{g}f3/4e/4|
{Gdc}d3/4f/4a3/4f/4{g}d3/4f/4{g}A3/4d/4|
{g}f3/4e/4{Gdc}d3/4e/4{g}f3/4d/4{g}A3/4d/4|  !
{g}G3/4{d}B/4{g}d3/4g/4{a}f3/4e/4{Gdc}d3/4f/4|
{gef}e3/4d/4{gcd}c3/4B/4{g}A3/4g/4{a}f3/4e/4|
{Gdc}d3/4f/4a3/4f/4{g}d3/4f/4{g}A3/4d/4|  !
{g}f3/4e/4{Gdc}d3/4e/4{g}f3/4d/4{g}A3/4d/4|
{g}G3/4{d}B/4{g}d3/4g/4{a}f3/4e/4{Gdc}d3/4c/4|
{gef}e{Gdc}d{gdG}d:|  !
{g}c3/4d/4|
{gef}e3/4A/4{gAGAG}A{g}f3/4A/4{gAGAG}A|
{gef}e3/4A/4{gAGAG}A{g}f3/4A/4{gAGAG}A|  !
{gef}e3/4A/4{g}f3/4A/4g3/4A/4{g}f3/4A/4|
{gef}e3/4d/4{gcd}c3/4B/4{g}A3/4g/4{a}f3/4e/4|
{Gdc}d3/4f/4a3/4f/4{g}d3/4f/4{g}A3/4d/4|  !
{g}f3/4e/4{Gdc}d3/4e/4{g}f3/4d/4{g}A3/4d/4|
{g}G3/4{d}B/4{g}d3/4g/4{a}f3/4e/4{Gdc}d3/4c/4|
{gef}e{Gdc}d{gdG}d{g}c3/4d/4|  !
{gef}e3/4A/4{gAGAG}A{g}f3/4A/4{gAGAG}A|
g3/4A/4{g}f3/4A/4{gef}e3/4A/4{gAGAG}A|
{gef}e3/4A/4{g}f3/4A/4g3/4A/4{g}f3/4A/4|  !
{gef}e3/4d/4{gcd}c3/4B/4{g}A3/4g/4{a}f3/4e/4|
{Gdc}d3/4f/4a3/4f/4{g}d3/4f/4{gBG}B3/4g/4|
{g}f3/4e/4{Gdc}d3/4e/4{g}f3/4d/4{g}A3/4d/4|  !
{g}G3/4{d}B/4{g}d3/4g/4{a}f3/4e/4{Gdc}d3/4c/4|
{gef}e{Gdc}d{gdG}d|]
